X: 1617
T: Annaghbeg, The
R: polka
M: 2/4
K: Dmajor
|:F/G/|A/B/A/F/ Ad|A/B/A/F/ Ad|ce B>c|BA FG|
A/B/A/F/ Ad|A/A/F/ Ad|c>e Bc|ed d:|
|:d/e/|fg/f/ ed|fg/f/ ed|ce B>c|
[1 BA F/G/A|f2 ed|~f2 ed|c>e Bc|ed d:|
[2 BA E/F/G|A/B/A/F/ Ad|~A2 A/B/d|c>e Bc|ed d||

